material/.icons/material/oil-temperature.svg

<svg xmlns="http://www.w3.org/2000/svg" viewBox="0 0 24 24"><path d="M10 5h3V3h-3V2c0-.6-.4-1-1-1s-1 .4-1 1v13.3c-.6.3-1 1-1 1.7 0 1.1.9 2 2 2s2-.9 2-2c0-.7-.4-1.4-1-1.7V13h3v-2h-3V9h3V7h-3V5m12 12.5s2 2.2 2 3.5c0 1.1-.9 2-2 2s-2-.9-2-2c0-1.3 2-3.5 2-3.5m.9-2c-.3.5-.9.6-1.4.4l-2.1-1.2-3.6 6.3c-.3.6-1 1-1.8 1H5c-1.1 0-2-.9-2-2v-3c0-1.1.9-2 2-2v5h9l2.1-3.6-3.1 1.8v-2.4l6.2-3.6 3.3 1.9c.5.3.6.9.4 1.4M3.5 13.9l-1.7 1.7c-.4.4-1 .4-1.4 0s-.4-1 0-1.4l1.7-1.7c.4-.4 1-.4 1.4 0s.4 1 0 1.4z"/></svg>

<?xml version="1.0" encoding="UTF-8"?><!DOCTYPE svg PUBLIC "-//W3C//DTD SVG 1.1//EN" "http://www.w3.org/Graphics/SVG/1.1/DTD/svg11.dtd"><svg xmlns="http://www.w3.org/2000/svg" xmlns:xlink="http://www.w3.org/1999/xlink" version="1.1" id="mdi-oil-temperature" width="24" height="24" viewBox="0 0 24 24"><path d="M10 5H13V3H10V2C10 1.4 9.6 1 9 1S8 1.4 8 2V15.3C7.4 15.6 7 16.3 7 17C7 18.1 7.9 19 9 19S11 18.1 11 17C11 16.3 10.6 15.6 10 15.3V13H13V11H10V9H13V7H10V5M22 17.5C22 17.5 24 19.7 24 21C24 22.1 23.1 23 22 23S20 22.1 20 21C20 19.7 22 17.5 22 17.5M22.9 15.5C22.6 16 22 16.1 21.5 15.9L19.4 14.7L15.8 21C15.5 21.6 14.8 22 14 22H5C3.9 22 3 21.1 3 20V17C3 15.9 3.9 15 5 15V20H14L16.1 16.4L13 18.2V15.8L19.2 12.2L22.5 14.1C23 14.4 23.1 15 22.9 15.5M3.5 13.9L1.8 15.6C1.4 16 .8 16 .4 15.6S0 14.6.4 14.2L2.1 12.5C2.5 12.1 3.1 12.1 3.5 12.5S3.9 13.5 3.5 13.9Z" /></svg>
